img/card-pic-01.svg

<svg width="18" height="22" fill="none" xmlns="http://www.w3.org/2000/svg"><path d="M10 6H4V4h6v2ZM10 10H4V8h6v2ZM4 14h6v-2H4v2Z" fill="#02291C"/><path fill-rule="evenodd" clip-rule="evenodd" d="M0 18V0h14v4h4v18H4v-4H0Zm12-2V2H2v14h10Zm2-10v12H6v2h10V6h-2Z" fill="#02291C"/></svg>

<svg width="18" height="22" viewBox="0 0 18 22" fill="none" xmlns="http://www.w3.org/2000/svg">
<path d="M10 6H4V4H10V6Z" fill="#02291C"/>
<path d="M10 10H4V8H10V10Z" fill="#02291C"/>
<path d="M4 14H10V12H4V14Z" fill="#02291C"/>
<path fill-rule="evenodd" clip-rule="evenodd" d="M0 18V0H14V4H18V22H4V18H0ZM12 16V2H2V16H12ZM14 6V18H6V20H16V6H14Z" fill="#02291C"/>
</svg>
